svgs/sharp-regular/rectangle-ad.svg

<svg xmlns="http://www.w3.org/2000/svg" viewBox="0 0 576 512"><!--! Font Awesome Pro 6.6.0 by @fontawesome - https://fontawesome.com License - https://fontawesome.com/license (Commercial License) Copyright 2024 Fonticons, Inc. --><path d="M48 80l0 352 480 0 0-352L48 80zM0 32l48 0 480 0 48 0 0 48 0 352 0 48-48 0L48 480 0 480l0-48L0 80 0 32zM192.3 160l15.7 0 4 0 16.1 0 6.1 14.8L307.4 352l-51.9 0-9.9-24-73.9 0-10.4 24-52.3 0L186 174.4l6.3-14.4zm.2 120l33.3 0-16.2-39.2L192.4 280zM392 256a24 24 0 1 0 0 48 24 24 0 1 0 0-48zm24-43.9l0-28.1 0-24 48 0 0 24 0 96 0 48 0 24-48 0 0-4.1c-7.5 2.7-15.6 4.1-24 4.1c-39.8 0-72-32.2-72-72s32.2-72 72-72c8.4 0 16.5 1.4 24 4.1z"/></svg>

<svg xmlns="http://www.w3.org/2000/svg" viewBox="0 0 576 512"><!--! Font Awesome Pro 6.4.0 by @fontawesome - https://fontawesome.com License - https://fontawesome.com/license (Commercial License) Copyright 2023 Fonticons, Inc. --><path d="M48 80V432H528V80H48zM0 32H48 528h48V80 432v48H528 48 0V432 80 32zM192.3 160H208h4 16.1l6.1 14.8L307.4 352H255.4l-9.9-24H171.6l-10.4 24H108.8L186 174.4l6.3-14.4zm.2 120h33.3l-16.2-39.2L192.4 280zM392 256a24 24 0 1 0 0 48 24 24 0 1 0 0-48zm24-43.9V184 160h48v24 96 48 24H416v-4.1c-7.5 2.7-15.6 4.1-24 4.1c-39.8 0-72-32.2-72-72s32.2-72 72-72c8.4 0 16.5 1.4 24 4.1z"/></svg>
